pix/lsu/pathstream.svg

<?xml version="1.0" encoding="UTF-8" standalone="no"?><!DOCTYPE svg PUBLIC "-//W3C//DTD SVG 1.1//EN" "http://www.w3.org/Graphics/SVG/1.1/DTD/svg11.dtd"><svg width="100%" height="100%" viewBox="0 0 294 288" version="1.1" xmlns="http://www.w3.org/2000/svg" xmlns:xlink="http://www.w3.org/1999/xlink" xml:space="preserve" xmlns:serif="http://www.serif.com/" style="fill-rule:evenodd;clip-rule:evenodd;stroke-linejoin:round;stroke-miterlimit:2;"><g id="Layer-1" serif:id="Layer 1"><path d="M100.683,186.078c0,30.89 0.004,61.778 -0.012,92.668c0,1.334 -0.015,2.706 -0.309,3.995c-0.776,3.399 -3.362,5.29 -6.69,5.081c-2.868,-0.18 -5.194,-2.412 -5.592,-5.625c-0.254,-2.041 -0.295,-4.12 -0.296,-6.183c-0.014,-56.613 -0.043,-113.226 0.017,-169.839c0.011,-10.534 0.591,-21.075 3.529,-31.266c5.605,-19.444 15.878,-36.009 31.21,-49.326c11.863,-10.305 25.37,-17.459 40.534,-21.715c13.934,-3.91 28.071,-4.9 42.235,-2.768c20.953,3.154 39.509,11.746 55.259,26.23c12.615,11.601 21.804,25.404 27.308,41.548c5.448,15.982 6.812,32.344 3.867,49.106c-2.649,15.077 -8.379,28.76 -17.265,41.132c-10.994,15.306 -25.216,26.596 -42.508,34.17c-14.135,6.192 -28.886,8.787 -44.213,8.652c-6.402,-0.055 -12.808,0 -19.204,-0.234c-3.209,-0.118 -5.33,-2.544 -5.504,-5.587c-0.211,-3.69 2.732,-6.657 6.856,-6.704c6.404,-0.071 12.812,-0.127 19.214,-0.003c19.143,0.373 36.626,-4.845 52.462,-15.53c14.063,-9.488 24.585,-21.972 31.491,-37.522c8.077,-18.185 9.803,-36.993 5.048,-56.208c-4.414,-17.834 -13.705,-32.899 -27.597,-45.048c-9.647,-8.437 -20.605,-14.379 -32.804,-18.369c-14.489,-4.739 -29.25,-5.501 -43.965,-2.672c-20.838,4.007 -38.466,14.091 -52.331,30.467c-10.98,12.968 -17.574,27.84 -20.074,44.575c-0.72,4.811 -0.652,9.683 -0.656,14.536c-0.019,27.48 -0.01,54.959 -0.01,82.439" style="fill:#fe5355;fill-rule:nonzero;"/><path d="M112.776,176.945c0.001,-25.102 0.057,-50.205 -0.018,-75.307c-0.051,-17.021 4.87,-32.378 14.995,-46.045c8.576,-11.577 19.571,-20.023 32.878,-25.607c13.442,-5.642 27.424,-7.515 41.702,-5.39c15.545,2.315 29.501,8.622 41.297,19.263c8.442,7.615 15.274,16.483 19.607,27c5.256,12.754 7.492,25.963 5.488,39.864c-1.57,10.878 -4.938,21.005 -10.767,30.239c-7.797,12.351 -18.208,21.908 -31.338,28.507c-12.738,6.404 -26.243,8.837 -40.377,8.538c-5.472,-0.114 -10.951,0.083 -16.422,-0.054c-5.269,-0.132 -8.365,-4.716 -6.152,-9.052c1.49,-2.918 4.314,-3.607 7.33,-3.62c7.643,-0.035 15.292,0.117 22.931,-0.071c16.939,-0.417 31.319,-6.982 43.481,-18.609c9.753,-9.325 16.022,-20.775 18.282,-33.928c3.7,-21.533 -2.031,-40.49 -17.31,-56.434c-7.413,-7.736 -16.263,-13.07 -26.247,-16.6c-10.028,-3.547 -20.522,-4.128 -30.85,-2.569c-21.373,3.227 -37.625,14.597 -48.256,33.399c-4.406,7.793 -7.013,16.369 -7.369,25.524c-0.891,22.922 -0.277,45.849 -0.375,68.772c-0.132,30.576 -0.033,61.155 -0.035,91.732c0,2.06 0.091,4.091 -1.274,5.918c-1.473,1.97 -3.402,2.676 -5.687,2.375c-2.379,-0.314 -4.147,-1.522 -5.043,-3.926c-0.53,-1.423 -0.463,-2.839 -0.464,-4.272c-0.01,-26.549 -0.007,-53.098 -0.007,-79.647" style="fill:#fec453;fill-rule:nonzero;"/><path d="M137.826,164.417c0,-20.553 0.105,-41.106 -0.036,-61.657c-0.095,-13.856 3.86,-26.293 13.266,-36.446c14.489,-15.641 32.346,-21.578 53.397,-16.758c16.599,3.798 28.87,13.541 36.129,28.677c8.043,16.767 7.295,33.688 -2.385,49.86c-8.631,14.418 -21.629,22.498 -37.929,25.432c-3.723,0.67 -7.613,0.52 -11.428,0.564c-6.402,0.075 -12.806,0.079 -19.208,-0.034c-4.232,-0.076 -6.621,-2.412 -6.619,-6.116c0.003,-3.592 2.864,-6.231 6.949,-6.256c7.643,-0.047 15.285,-0.059 22.927,-0.017c18.128,0.098 35.249,-13.975 39.297,-31.514c4.818,-20.87 -7.999,-42.143 -28.627,-48.203c-19.338,-5.682 -40.666,3.739 -49.241,21.909c-2.787,5.906 -3.882,12.021 -3.872,18.508c0.064,43.687 0.037,87.374 0.028,131.061c-0.001,5.498 -3.324,8.562 -8.016,7.43c-2.417,-0.584 -3.986,-2.082 -4.362,-4.58c-0.213,-1.42 -0.26,-2.875 -0.261,-4.315c-0.015,-22.515 -0.01,-45.03 -0.009,-67.545" style="fill:#079de8;fill-rule:nonzero;"/><path d="M37.817,154.32c-10.221,0.002 -20.442,0.03 -30.664,-0.012c-4.52,-0.018 -7.041,-2.186 -7.15,-5.946c-0.113,-3.925 2.755,-6.579 7.256,-6.585c17.036,-0.021 34.072,-0.009 51.108,-0.009c3.304,0 6.609,-0.04 9.912,0.012c4.042,0.064 7.006,2.716 7.06,6.228c0.059,3.774 -2.512,6.257 -6.857,6.287c-10.221,0.072 -20.443,0.023 -30.665,0.025" style="fill:#0a9ee8;fill-rule:nonzero;"/><path d="M49.384,178.136c-6.294,0 -12.588,0.019 -18.883,-0.007c-4.142,-0.017 -6.75,-2.299 -6.844,-5.901c-0.097,-3.715 2.603,-6.376 6.741,-6.391c12.692,-0.048 25.384,-0.04 38.075,-0.003c4.033,0.011 6.988,2.781 6.953,6.328c-0.035,3.528 -2.77,5.947 -6.849,5.965c-6.398,0.03 -12.795,0.009 -19.193,0.009" style="fill:#fec453;fill-rule:nonzero;"/><path d="M61.287,202.168c-2.473,0.001 -4.949,0.076 -7.418,-0.017c-3.853,-0.144 -6.396,-2.598 -6.426,-6.059c-0.029,-3.309 2.593,-6.307 6.169,-6.452c5.144,-0.209 10.307,-0.2 15.452,-0.008c3.589,0.134 6.324,3.116 6.3,6.329c-0.028,3.625 -2.565,6.037 -6.659,6.19c-2.469,0.092 -4.945,0.016 -7.418,0.017" style="fill:#fe5658;fill-rule:nonzero;"/></g></svg>

<?xml version="1.0" encoding="UTF-8" standalone="no"?>
<!DOCTYPE svg PUBLIC "-//W3C//DTD SVG 1.1//EN" "http://www.w3.org/Graphics/SVG/1.1/DTD/svg11.dtd">
<svg width="100%" height="100%" viewBox="0 0 512 512" version="1.1" xmlns="http://www.w3.org/2000/svg" xmlns:xlink="http://www.w3.org/1999/xlink" xml:space="preserve" xmlns:serif="http://www.serif.com/" style="fill-rule:evenodd;clip-rule:evenodd;stroke-linejoin:round;stroke-miterlimit:2;">
    <g transform="matrix(1.15634,0,0,1.15634,85.7891,89.4371)">
        <path d="M100.683,186.078C100.683,216.968 100.687,247.856 100.671,278.746C100.671,280.08 100.656,281.452 100.362,282.741C99.586,286.14 97,288.031 93.672,287.822C90.804,287.642 88.478,285.41 88.08,282.197C87.826,280.156 87.785,278.077 87.784,276.014C87.77,219.401 87.741,162.788 87.801,106.175C87.812,95.641 88.392,85.1 91.33,74.909C96.935,55.465 107.208,38.9 122.54,25.583C134.403,15.278 147.91,8.124 163.074,3.868C177.008,-0.042 191.145,-1.032 205.309,1.1C226.262,4.254 244.818,12.846 260.568,27.33C273.183,38.931 282.372,52.734 287.876,68.878C293.324,84.86 294.688,101.222 291.743,117.984C289.094,133.061 283.364,146.744 274.478,159.116C263.484,174.422 249.262,185.712 231.97,193.286C217.835,199.478 203.084,202.073 187.757,201.938C181.355,201.883 174.949,201.938 168.553,201.704C165.344,201.586 163.223,199.16 163.049,196.117C162.838,192.427 165.781,189.46 169.905,189.413C176.309,189.342 182.717,189.286 189.119,189.41C208.262,189.783 225.745,184.565 241.581,173.88C255.644,164.392 266.166,151.908 273.072,136.358C281.149,118.173 282.875,99.365 278.12,80.15C273.706,62.316 264.415,47.251 250.523,35.102C240.876,26.665 229.918,20.723 217.719,16.733C203.23,11.994 188.469,11.232 173.754,14.061C152.916,18.068 135.288,28.152 121.423,44.528C110.443,57.496 103.849,72.368 101.349,89.103C100.629,93.914 100.697,98.786 100.693,103.639C100.674,131.119 100.683,158.598 100.683,186.078" style="fill:rgb(70,29,124);fill-rule:nonzero;"/>
    </g>
    <g transform="matrix(1.15634,0,0,1.15634,85.7891,89.4371)">
        <path d="M112.776,176.945C112.777,151.843 112.833,126.74 112.758,101.638C112.707,84.617 117.628,69.26 127.753,55.593C136.329,44.016 147.324,35.57 160.631,29.986C174.073,24.344 188.055,22.471 202.333,24.596C217.878,26.911 231.834,33.218 243.63,43.859C252.072,51.474 258.904,60.342 263.237,70.859C268.493,83.613 270.729,96.822 268.725,110.723C267.155,121.601 263.787,131.728 257.958,140.962C250.161,153.313 239.75,162.87 226.62,169.469C213.882,175.873 200.377,178.306 186.243,178.007C180.771,177.893 175.292,178.09 169.821,177.953C164.552,177.821 161.456,173.237 163.669,168.901C165.159,165.983 167.983,165.294 170.999,165.281C178.642,165.246 186.291,165.398 193.93,165.21C210.869,164.793 225.249,158.228 237.411,146.601C247.164,137.276 253.433,125.826 255.693,112.673C259.393,91.14 253.662,72.183 238.383,56.239C230.97,48.503 222.12,43.169 212.136,39.639C202.108,36.092 191.614,35.511 181.286,37.07C159.913,40.297 143.661,51.667 133.03,70.469C128.624,78.262 126.017,86.838 125.661,95.993C124.77,118.915 125.384,141.842 125.286,164.765C125.154,195.341 125.253,225.92 125.251,256.497C125.251,258.557 125.342,260.588 123.977,262.415C122.504,264.385 120.575,265.091 118.29,264.79C115.911,264.476 114.143,263.268 113.247,260.864C112.717,259.441 112.784,258.025 112.783,256.592C112.773,230.043 112.776,203.494 112.776,176.945" style="fill:rgb(253,208,35);fill-rule:nonzero;"/>
    </g>
    <g transform="matrix(1.15634,0,0,1.15634,85.7891,89.4371)">
        <path d="M137.826,164.417C137.826,143.864 137.931,123.311 137.79,102.76C137.695,88.904 141.65,76.467 151.056,66.314C165.545,50.673 183.402,44.736 204.453,49.556C221.052,53.354 233.323,63.097 240.582,78.233C248.625,95 247.877,111.921 238.197,128.093C229.566,142.511 216.568,150.591 200.268,153.525C196.545,154.195 192.655,154.045 188.84,154.089C182.438,154.164 176.034,154.168 169.632,154.055C165.4,153.979 163.011,151.643 163.013,147.939C163.016,144.347 165.877,141.708 169.962,141.683C177.605,141.636 185.247,141.624 192.889,141.666C211.017,141.764 228.138,127.691 232.186,110.152C237.004,89.282 224.187,68.009 203.559,61.949C184.221,56.267 162.893,65.688 154.318,83.858C151.531,89.764 150.436,95.879 150.446,102.366C150.51,146.053 150.483,189.74 150.474,233.427C150.473,238.925 147.15,241.989 142.458,240.857C140.041,240.273 138.472,238.775 138.096,236.277C137.883,234.857 137.836,233.402 137.835,231.962C137.82,209.447 137.825,186.932 137.826,164.417" style="fill:rgb(70,29,124);fill-rule:nonzero;"/>
    </g>
    <g transform="matrix(1.15634,0,0,1.15634,85.7891,89.4371)">
        <path d="M37.817,154.32C27.596,154.322 17.375,154.35 7.153,154.308C2.633,154.29 0.112,152.122 0.003,148.362C-0.11,144.437 2.758,141.783 7.259,141.777C24.295,141.756 41.331,141.768 58.367,141.768C61.671,141.768 64.976,141.728 68.279,141.78C72.321,141.844 75.285,144.496 75.339,148.008C75.398,151.782 72.827,154.265 68.482,154.295C58.261,154.367 48.039,154.318 37.817,154.32" style="fill:rgb(70,29,124);fill-rule:nonzero;"/>
    </g>
    <g transform="matrix(1.15634,0,0,1.15634,85.7891,89.4371)">
        <path d="M49.384,178.136C43.09,178.136 36.796,178.155 30.501,178.129C26.359,178.112 23.751,175.83 23.657,172.228C23.56,168.513 26.26,165.852 30.398,165.837C43.09,165.789 55.782,165.797 68.473,165.834C72.506,165.845 75.461,168.615 75.426,172.162C75.391,175.69 72.656,178.109 68.577,178.127C62.179,178.157 55.782,178.136 49.384,178.136" style="fill:rgb(253,208,35);fill-rule:nonzero;"/>
    </g>
    <g transform="matrix(1.15634,0,0,1.15634,85.7891,89.4371)">
        <path d="M61.287,202.168C58.814,202.169 56.338,202.244 53.869,202.151C50.016,202.007 47.473,199.553 47.443,196.092C47.414,192.783 50.036,189.785 53.612,189.64C58.756,189.431 63.919,189.44 69.064,189.632C72.653,189.766 75.388,192.748 75.364,195.961C75.336,199.586 72.799,201.998 68.705,202.151C66.236,202.243 63.76,202.167 61.287,202.168" style="fill:rgb(70,29,124);fill-rule:nonzero;"/>
    </g>
</svg>
